X: 2784
T: Banshee's Wail, The
R: jig
M: 6/8
K: Gmajor
|:GED DED|GBd ege|dBA AGA|1 BGE E2D:|2 BGF G3||
|:GED DED|GBd ege|dBA AGA|1 BGE E2D:|2 BGF G3||
|:Bdd edd|gdd edB|BAG GAB|1 AGE E3:|2 AGF G3||
Bdd edd|gdd edB|BAG GAB|AGE E3|
GED DED|GBd ege|dBA AGA|BGF G3||

